X: 54
T:IX sinfonía de Beethoven
M:2/4
L:1/8
Q:250
C:Beethoven
K:C
E2 FG | {A}GF ED | C{B,}C DE | {D}E>D {C}D2 |
E2 FG | {F}GF ED | C{B,}C DE | D>C {B,}C2- |: D2 EC | DE/F/ EC|
DE/F/ ED |CD GE- | E{D}E  FG | GF ED | C{B,}C DE | D>C {B,}C2 :|

